X:735
M:C|
L:1/8
K:D Minor
f|dafg afdf|egcg ecge|defg a2 gf|ecge d2 df|dafg afdf|egcg ecge|
fdec defd|cAGE D2D||

